!! J.S. Bach "Double of the Sarabande" from Partita No. 1, solo violin, BWV 1002.
!! From 'Neue Ausgabe Saemtlicher Werke' Serie VI: Kammermusikwerke,
!! Band 1 ('Werke fuer Violine') Baerenreiter Kassel (Basel) 1958; p.16
!! This file has been error-checked using the double-entry method.
!! NOTE:  The repeats at bar 8 and at the end of the work have been
!!        expanded in this encoding.
**kern
*M9/8
=1
8b
8dd
8ff#
8gg
8ee
8dd
8cc#
8aa
8gg
=2
8ff#
8dd
8cc#
8dd
8a
8f#
8d
8dd
8cc#
=3
8b
8g
8f#
8e
8ee
8dd
8e#
8cc#
8b
=4
8a#
8ff#
8cc#
8a#
8gn
8f#
8en
8d
8c#
=5
8d
8f#
8b
8c#
8b
8an
8B
8a
8g
=6
8A
8c#
8e
8g
8cc#
8ee
8a#
8ff#
8ee
=7
8dd
8b
8an
8g
8ee
8dd
8cc#
8a#
8b
=8
8f#
8a#
8cc#
8ff#
8gg
8ff#
8ee
8dd
8cc#
=9
8b
8dd
8ff#
8gg
8ee
8dd
8cc#
8aa
8gg
=10
8ff#
8dd
8cc#
8dd
8a
8f#
8d
8dd
8cc#
=11
8b
8g
8f#
8e
8ee
8dd
8e#
8cc#
8b
=12
8a#
8ff#
8cc#
8a#
8gn
8f#
8en
8d
8c#
=13
8d
8f#
8b
8c#
8b
8an
8B
8a
8g
=14
8A
8c#
8e
8g
8cc#
8ee
8a#
8ff#
8ee
=15
8dd
8b
8an
8g
8ee
8dd
8cc#
8a#
8b
=16
8ff#
8cc#
8a#
2.f#
=17
8f#
8cc#
8aa#
8aa#
8cc#
8f#
8e
8d
8c#
=18
8d
8f#
8b
8dd
8ff#
8bb
8aan
8gg#
8ff#
=19
8ee
8g#
8dd
8cc#
8a
8ff#
8dd
8b
8gg#
=20
8aa
8ee
8cc#
8a
8cc#
8ee
8ggn
8ff#
8ee
=21
8dd#
8a
8cccn
8bb
8ee
8g
8f#
8dd
8aa
=22
8ccn
8a
8e
8d#
8b
8aa
8gg
8dd#
8ee
=23
8a
8gg
8ff#
8b
8g
8ee
8f#
8a
8dd#
=24
8ee
8b
8g
8e
8g
8b
8ee
8ff#
8gg
=25
8aa
8ee
8dd
8cc#
8b
8a
8g
8f#
8e
=26
8f#
8a
8cc#
8dd
8ff#
8ee
8ff#
8a
8d
=27
8G
8d
8b
8cc#
8bb
8aa
8gg
8ee
8ff#
=28
8ee
8cc#
8b
8cc#
8a
8g#
8a
8e
8gn
=29
8a#
8cc#
8ee
8gg
8ff#
8ee
8dd
8ee
8cc#
=30
8dd
8b
8cc#
8dd
8ff#
8ee
8ff#
8an
8f#
=31
8g
8b
8ff#
8ee
8cc#
8dd
8cc#
8a#
8b
=32
8a#
8cc#
8b
8a
8g#
8f#
8e
8d
8c#
=33
8d
8f#
8b
8b
8a#
8cc#
8cc#
8b
8dd
=34
8dd
8b
8g#
8e
8g#
8b
8dd
8gg#
8bb
=35
8e
8gn
8cc#
8cc#
8b
8dd
8dd
8cc#
8ee
=36
8ee
8cc#
8a#
8f#
8a#
8cc#
8ee
8aa#
8ccc#
=37
8dd
8bb
8f#
8cc#
8aan
8e
8b
8gg
8d
=38
8c#
8e
8g
8a#
8cc#
8ee
8gg
8ff#
8ee
=39
8aa#
8bb
8ee#
8ff#
8cc#
8dd
8f#
8b
8a#
=40
8b
8f#
8d
8B
8d
8f#
8b
8cc#
8dd
=41
8f#
8cc#
8aa#
8aa#
8cc#
8f#
8e
8d
8c#
=42
8d
8f#
8b
8dd
8ff#
8bb
8aan
8gg#
8ff#
=43
8ee
8g#
8dd
8cc#
8a
8ff#
8dd
8b
8gg#
=44
8aa
8ee
8cc#
8a
8cc#
8ee
8ggn
8ff#
8ee
=45
8dd#
8a
8cccn
8bb
8ee
8g
8f#
8dd
8aa
=46
8ccn
8a
8e
8d#
8b
8aa
8gg
8dd#
8ee
=47
8a
8gg
8ff#
8b
8g
8ee
8f#
8a
8dd#
=48
8ee
8b
8g
8e
8g
8b
8ee
8ff#
8gg
=49
8aa
8ee
8dd
8cc#
8b
8a
8g
8f#
8e
=50
8f#
8a
8cc#
8dd
8ff#
8ee
8ff#
8a
8d
=51
8G
8d
8b
8cc#
8bb
8aa
8gg
8ee
8ff#
=52
8ee
8cc#
8b
8cc#
8a
8g#
8a
8e
8gn
=53
8a#
8cc#
8ee
8gg
8ff#
8ee
8dd
8ee
8cc#
=54
8dd
8b
8cc#
8dd
8ff#
8ee
8ff#
8an
8f#
=55
8g
8b
8ff#
8ee
8cc#
8dd
8cc#
8a#
8b
=56
8a#
8cc#
8b
8a
8g#
8f#
8e
8d
8c#
=57
8d
8f#
8b
8b
8a#
8cc#
8cc#
8b
8dd
=58
8dd
8b
8g#
8e
8g#
8b
8dd
8gg#
8bb
=59
8e
8gn
8cc#
8cc#
8b
8dd
8dd
8cc#
8ee
=60
8ee
8cc#
8a#
8f#
8a#
8cc#
8ee
8aa#
8ccc#
=61
8dd
8bb
8f#
8cc#
8aan
8e
8b
8gg
8d
=62
8c#
8e
8g
8a#
8cc#
8ee
8gg
8ff#
8ee
=63
8aa#
8bb
8ee#
8ff#
8cc#
8dd
8f#
8b
8a#
=64
8B
8d
8f#
8b
8dd
8ff#
4.bb
==
*-
